X:1
T:# / 2 haydn: psalm 69, o let me in th'accepted hour
%%score [ 1 2 3 ]
L:1/8
Q:1/4=150
M:3/2
K:A
V:1 treble nm="Soprano"
V:2 treble nm="Alto"
V:3 bass nm="Basso"
V:1
 A4 | c8 (d2 B2) | (A4 c4) e4 | (e6"^Joseph Haydn""^1732 - 1809" f2) (e2 d2) | (d4 c4)"^," A4 | %5
w: O|let me *|in * th'ac-|cept- * ed *|hour * in|
w: Snatch|from the *|mi- * ry|dephts * my *|feet, * back|
w: Hear,|Lord, and *|to * my|soul * dis- *|play, * thy|
w: Ne'er|to thy *|ser- * vant's|long- * ing *|eye, * thy|
 d8 c4 | f8 e4 | (e4 d4) c4 | !fermata!B8 B4 | =c8 c4 | =f8 e4 | ^d8 d4 | %12
w: pray'r to|Thee my|spir- * it|pour; thine|ear, O|Lord, pro-|pi- \-tious|
w: let my|fu- rious|foes * re-|trat; safe|from their|hate thy|ser- vant|
w: mer- cy's|all en-|liv'- * ning|ray; look|down, e-|ter- nal|God, look|
w: face, a-|midst my|foes, * de-|ny; haste|to my|aid, O|haste Thee|
 !fermata!e8 !courtesy!^f4 | B8 e4 | (A4 !courtesy!=d4) c4 |{c} (B4 A4) G4 | A8 |] %17
w: bend, and|pleas'd thy|pro- * mis'd|help * ex-|tend.|
w: keep, nor|leave him|sink- * king|in * the|deep.|
w: down, be-|\-hold me,|but, * with-|out * a|frown.|
w: near, re-|\-lease my|soul * from|hos- * tile|fear.|
V:2
 C4 | E8 (F2 D2) | C8 c4 | B8 B4 | (B4 A4)"^," A4 | A8 A4 | A8 A4 | B8 A4 | !fermata!G8 G4 | %9
w: O|let me *|in th'ac-|cept- ed|hour * in|pray'r to|Thee my|spir- it|pour; thine|
w: Snatch|from the *|mi- ry|dephts my|feet, * back|let my|fu- rious|foes re-|treat; safe|
w: Hear,|Lord, and *|to my|soul dis-|play, * thy|mer- cy's|all en-|liv'- ning|ray; look|
w: Ne'er|to thy *|ser- vant's|long- ing|eye, * thy|face, a-|midst my|foes, de-|ny; haste|
 A8 A4 | A8 A4 | (A3 B =c4) (B2 A2) | (A4 !fermata!G4) A4 | (A4 G4) =G4 | %14
w: ear, O|Lord, pro-|pi- * * tious *|bend, * and|pleas'd * thy|
w: from their|hate thy|ser- * * vant *|keep, * nor|leave * him|
w: down, e-|ter- nal|God, * * look *|down, * be-|\-hold * me,|
w: to my|aid, O|haste * * Thee *|near, * re-|\-lease * my|
 (F4 !courtesy!^G4) (A2 e2) |{e} (d4 c4) B4 | A8 |] %17
w: pro- * mis'd *|help * ex-|tend.|
w: sink- * ing *|in * the|deep.|
w: but * with- *|out * a|frown.|
w: soul * from *|hos- * tile|fear.|
V:3
 A,4 | A,8 A,4 | %2
w: O|let me|
w: Snatch|from the|
w: Hear,|Lord, and|
w: Ne'er|to thy|
 A,8"^Psalm 69""^O let me in th' accepted hour""^(""^from""^: Six english Psalms)" A,4 | G,8 G,4 | %4
w: in th'ac-|cept- \-ed|
w: mi- ry|dephts my|
w: to my|soul dis-|
w: ser- vant's|long- ing|
 A,8"^," (A,2 G,2) | F,8 E,4 | (D,4 D4) C4 | G,8 A,4 | !fermata!E,8 E,4 | A,8 A,4 | D,8 E,4 | %11
w: hour in *|pray'r to|Thee * my|spir- it|pour; thine|ear, O|Lord, pro-|
w: feet, back *|let my|fu- * rious|foes re-|treat; safe|from their|hate thy|
w: play, thy *|mer- cy's|all * en-|liv'- ning|ray; look|down, e-|ter- nal|
w: eye, thy *|face, a-|midst * my|foes, de-|ny; haste|to my|aid, O|
 =F,8 F,4 | !fermata!E,8 D4 |"^pleas'd," E8 C4 | (D4 B,4) A,4 | (D,4 E,4) E,4 | A,,8 |] %17
w: pi- \-tious|bend, and|* thy|pro- * mis'd|help * ex-|tend.|
w: ser- vant|keep, nor|leave him|sink- * ing|in * the|deep.|
w: God, look|down, be|\-hold me,|but * with-|out * a|frown.|
w: haste Thee|near, re-|\-lease my|soul * from|hos- * tile|fear.|

